X: 10253
T: Lancers Part 5 (Reel)
B: K\"ohler's Violin Repository, v.1, 1885 p.25 #3
F: http://www.archive.org/details/klersviolinrepos01edin
Z: 2011 John Chambers <jc:trillian.mit.edu>
M: 2/4
L: 1/16
K: G
(uBc) |\
(d^c)de (d=c)BA | G2G2 {A}GFGA |\
B2B2 {c}BABc | B2A2A2 (Bc) |\
(d^c)de (d=c)BA |
G2G2 {A}GFGA |\
B2B2 {B}AGAB | G2B2G :: (3udef) |\
gfga (b2ag) | fgaf d2((3def) |
gfga b2(ag) | fgaf d2g2 |\
dcBc defg | dcBc defg |\
(ef)ge (fg)af | g2b2"_D.C. Fine."g2 :|

%%sep 2 1 500

